X: 24608
T: Mac Master's
R: polka
M: 2/4
K: Amajor
|:Ac cB|Ac e2|f=g fg|fe ec|
Ac cB|Ac e2|f=g gf|e2 e2:|
|:a2 bg|ag fe|fg Bc/B/|AB ce|
a2 bg|ag fe|fg Bc/B/|A2 A2:|

